gama.ui.shared/icons_svg/dark/views/tabs/view.errors.svg

<svg height="24.75" viewBox="-783.358 -2973.769 24.75 24.75" width="24.75" xmlns="http://www.w3.org/2000/svg"><path d="m-770.9828-2954.3935c-3.8666 0-7-3.1335-7-7 0-3.8667 3.1334-7 7-7 3.8667 0 7 3.1333 7 7 0 3.8665-3.1333 7-7 7zm0-.6667c3.5 0 6.3334-2.8333 6.3334-6.3333s-2.8334-6.3335-6.3334-6.3335-6.3333 2.8335-6.3333 6.3335 2.8333 6.3333 6.3333 6.3333zm.3334-6.3333c0 .1865-.1467.3333-.3334.3333-.1866 0-.3333-.1468-.3333-.3333v-2.6667c0-.1868.1467-.3333.3333-.3333.1867 0 .3334.1465.3334.3333zm-.6667 1.6665h.6667v.6668h-.6667z" fill="#fc6d7d"/></svg>

<?xml version="1.0" encoding="UTF-8" standalone="no"?>
<!DOCTYPE svg PUBLIC "-//W3C//DTD SVG 1.1//EN" "http://www.w3.org/Graphics/SVG/1.1/DTD/svg11.dtd">
<svg xmlns="http://www.w3.org/2000/svg" xmlns:dc="http://purl.org/dc/elements/1.1/" version="1.1" xmlns:xl="http://www.w3.org/1999/xlink" viewBox="-783.3578 -2973.7685 24.75 24.75" width="24.75" height="24.75">
  <defs/>
  <g id="SOURCES" fill="none" stroke="none" stroke-dasharray="none" fill-opacity="1" stroke-opacity="1">
    <title>SOURCES</title>
    <g id="SOURCES_Dark">
      <title>Dark</title>
      <g id="Group_12697">
        <g id="Graphic_11032">
          <path d="M -770.9828 -2954.3935 C -774.8494 -2954.3935 -777.9828 -2957.527 -777.9828 -2961.3935 C -777.9828 -2965.2602 -774.8494 -2968.3935 -770.9828 -2968.3935 C -767.1161 -2968.3935 -763.9828 -2965.2602 -763.9828 -2961.3935 C -763.9828 -2957.527 -767.1161 -2954.3935 -770.9828 -2954.3935 Z M -770.9828 -2955.0602 C -767.4828 -2955.0602 -764.6494 -2957.8935 -764.6494 -2961.3935 C -764.6494 -2964.8935 -767.4828 -2967.727 -770.9828 -2967.727 C -774.4828 -2967.727 -777.3161 -2964.8935 -777.3161 -2961.3935 C -777.3161 -2957.8935 -774.4828 -2955.0602 -770.9828 -2955.0602 Z M -770.6494 -2961.3935 C -770.6494 -2961.207 -770.7961 -2961.0602 -770.9828 -2961.0602 C -771.1694 -2961.0602 -771.3161 -2961.207 -771.3161 -2961.3935 L -771.3161 -2964.0602 C -771.3161 -2964.247 -771.1694 -2964.3935 -770.9828 -2964.3935 C -770.7961 -2964.3935 -770.6494 -2964.247 -770.6494 -2964.0602 Z M -771.3161 -2959.727 L -770.6494 -2959.727 L -770.6494 -2959.0602 L -771.3161 -2959.0602 Z" fill="#fc6d7d"/>
        </g>
        <g id="Graphic_12678"/>
      </g>
    </g>
  </g>
</svg>
